X:21
T:La boulangre de Bragelone
R:
S:
N:
A:Champagne
G:
O:France
Z:<anamnese@laposte.net>
M:6/8
L:1/8
Q:1/4=155
K:Bb
DEF G3 | F3 DEF | G3 F3 | DEF G2A | F2G F3 ::
BBB B2 B | A2B c2c | G2 c B2A | G3F3 ::
AAA A2 B | A2 G F2 G | F3F3 :|
